X:1
T:Menuet HWV 434/4
T:Menuet HWV 434/4
T:Handel, George Frideric
C:G.F. Handel
%%score { ( 1 4 ) | ( 2 3 ) }
L:1/8
Q:1/4=60
M:3/4
K:Bb
V:1 treble nm="Piano"
V:4 treble 
V:2 bass 
V:3 bass 
V:1
 (d2 Mb3 Pc' | a4 a2) | (A2 Ma3 b | Pg4 g2) | (G2 g3 a | ^f2 =efdf) | (^fg)(ga)(ab) | %7
 (Pa2 g^f=ed) | (d2 babc' | Pa4 a2) | (A2 Ma3 b | Pg4 g2) | G2 (g^fga | P^f3 d Pg2- | ga b2 Pa>g | %15
 [dgb]6)!fine! :: (d2 d2 Pe2{de} | f2 _agfe | dc P=B4{AB} | c4) c2 | (c(d) P=B4{AB} | c4) c2 | %22
 (cd) (P=B4{AB} | c4) c2 | (cd e2 d2 | e2 dcfA | Bc PA3 B) | MB4 B2 | (B(c) PA3 B | B4) B2 | %30
 (A2 dcBA) | (A2 dcBA) | (A2 dcBA) | PA4 A2 | (A(=B) PB3 A/B/ | Pc3 B/c/ d2 | (B)A) PB2 (AG) | %37
 [B,DG]6!D.C.! :| %38
V:2
 z2 B,2 E2 | z2 A,2 E2 | z2 A,2 D2 | z2 G,2 D2 | z2 G,2 C2 | z2 A,2 C2 | B,2 A,2 G,2 | D,2 D2 C2 | %8
 B,2 G,4 | z2 A,2 E2 | z2 A,2 D2 | z2 G,2 D2 | z2 G,2 C2 | z2 C2 B,2 | G,2 D2 D,2 | G,2 D,2 G,,2 :: %16
 =B,4 C2 | C2 =B,2 C2 | F,2 G,2 G,,2 | C,2 D,2 E,2 | F,2 D,2 G,2 | C,2 D,2 E,2 | F,2 D,2 G,2 | %23
 C,2 C2 B,2 | A,2 F,2 B,2 | G,2 A,2 B,C, | D,E, F,2 F,,2 | B,,2 C,2 D,2 | E,2 F,2 F,,2 | %29
 B,,2 A,,2 G,,2 | C,2 C,,2 C,2 | D,2 D,,2 D,2 | E,2 E,,2 E,2 | D,2 A,,2 D,,2 | z2 F,4 | z2 G,4 | %36
 C,2 D,2 D,,2 | G,,2 B,,2 D,2 :| %38
V:3
 G,6 | F,6 | F,6 | E,6 | E,6 | D,6 | x6 | x6 | x4 E2 | F,6 | F,6 | E,6 | E,6 | D,6 | x6 | x6 :: %16
 G,2 F,2 E,2 | D,4 C,2 | x6 | x6 | x6 | x6 | x6 | x6 | x6 | x6 | x6 | x6 | x6 | x6 | x6 | x6 | x6 | %33
 x6 | D,4 D,2 | E,4 B,,2 | x6 | x6 :| %38
V:4
 x6 | x6 | x6 | x6 | x6 | x6 | x6 | x6 | x6 | x6 | x6 | x6 | x6 | x6 | x6 | x6 :: x6 | x6 | x6 | %19
 x6 | x6 | x6 | x6 | x6 | x6 | x6 | x6 | x6 | x6 | x6 | G6 | ^F6 | G6 | ^F6 | =F6 | G6 | G4 ^F2 | %37
 x6 :| %38

